learning-site/svg (68).svg

<svg xmlns="http://www.w3.org/2000/svg" viewBox="0 0 100 100"><defs><filter x="-1.6%" y="-1.7%" width="103.1%" height="106.7%" filterUnits="objectBoundingBox" id="a"><feOffset dy="2" in="SourceAlpha" result="shadowOffsetOuter1"/><feColorMatrix values="0 0 0 0 0 0 0 0 0 0 0 0 0 0 0 0 0 0 0.0977977808 0" in="shadowOffsetOuter1" result="shadowMatrixOuter1"/><feMerge><feMergeNode in="shadowMatrixOuter1"/><feMergeNode in="SourceGraphic"/></feMerge></filter></defs><g fill="none" fill-rule="evenodd"><rect fill="#55A2FF" fill-rule="nonzero" x="2" y="2" width="96" height="96" rx="48"/><g filter="url(#a)" transform="translate(18 20)"><path d="M54 59c0 .55-.45 1-1 1h-6c-.55 0-1-.45-1-1v-1c0-.55.45-1 1-1h6c.55 0 1 .45 1 1v1" fill="#30404D"/><path d="M53 57h-3v3h3c.55 0 1-.45 1-1v-1c0-.55-.45-1-1-1" fill="#182A37"/><path d="M18 59c0 .55-.45 1-1 1h-6c-.55 0-1-.45-1-1v-1c0-.55.45-1 1-1h6c.55 0 1 .45 1 1v1" fill="#30404D"/><path d="M17 57h-3v3h3c.55 0 1-.45 1-1v-1c0-.55-.45-1-1-1" fill="#182A37"/><path d="M64 56c0 1.1-.9 2-2 2H2c-1.1 0-2-.9-2-2V2C0 .9.9 0 2 0h60c1.1 0 2 .9 2 2v54" fill="#30404D"/><path d="M62 0H32v54H6c-1.1 0-2-.9-2-2v1c0 1.1.9 2 2 2h24c1.1 0 2 .895 2 2v1h30c1.1 0 2-.9 2-2V2c0-1.1-.9-2-2-2" fill="#182A37"/><path d="M60 52c0 1.1-.9 2-2 2H6c-1.1 0-2-.9-2-2V6c0-1.1.9-2 2-2h52c1.1 0 2 .9 2 2v46" fill="#546670"/><path d="M32 8v42c0 1.104-.9 2-2 2H4c0 1.1.9 2 2 2h52c1.1 0 2-.9 2-2V6H34c-1.1 0-2 .895-2 2" fill="#30404D"/><path d="M5 21c0 .549-.45 1-1 1H3c-.55 0-1-.451-1-1v-6c0-.551.45-1 1-1h1c.55 0 1 .449 1 1v6M5 43c0 .549-.45 1-1 1H3c-.55 0-1-.451-1-1v-6c0-.551.45-1 1-1h1c.55 0 1 .449 1 1v6" fill="#182A37"/><path d="M32 40.979c-6.46 0-11.71-5.094-12-11.479-.01.182-.03.361-.03.546 0 6.641 5.39 12.025 12.03 12.025s12.03-5.384 12.03-12.025c0-.185-.02-.364-.03-.546-.29 6.385-5.54 11.479-12 11.479M11 9c0 1.104-.9 2-2 2s-2-.896-2-2c0-1.105.9-2 2-2s2 .895 2 2M11 49c0 1.104-.9 2-2 2s-2-.896-2-2c0-1.105.9-2 2-2s2 .895 2 2" fill="#30404D"/><path d="M44.03 28.953c0 6.641-5.39 12.026-12.03 12.026s-12.03-5.385-12.03-12.026S25.36 16.928 32 16.928s12.03 5.384 12.03 12.025" fill="#6E828F"/><path d="M32 39c-.55 0-1-.448-1-1v-1c0-.552.45-1 1-1s1 .448 1 1v1c0 .552-.45 1-1 1M32 22c-.55 0-1-.448-1-1v-1c0-.552.45-1 1-1s1 .448 1 1v1c0 .552-.45 1-1 1M24 30h-1c-.55 0-1-.448-1-1s.45-1 1-1h1c.55 0 1 .448 1 1s-.45 1-1 1M41 30h-1c-.55 0-1-.448-1-1s.45-1 1-1h1c.55 0 1 .448 1 1s-.45 1-1 1M25.64 36.363a1 1 0 0 1-.71-1.707l.71-.707a.996.996 0 0 1 1.41 0 1 1 0 0 1 0 1.414l-.71.707a.979.979 0 0 1-.7.293M37.66 24.343a1 1 0 0 1-.71-1.707l.71-.708a.996.996 0 0 1 1.41-.001 1 1 0 0 1 0 1.414l-.7.708c-.2.196-.46.294-.71.294M26.34 24.343c-.25 0-.51-.098-.71-.294l-.7-.708a1 1 0 0 1 0-1.414.996.996 0 0 1 1.41.001l.71.708a1 1 0 0 1-.71 1.707M38.36 36.363a.979.979 0 0 1-.7-.293l-.71-.707a1 1 0 0 1 0-1.414.996.996 0 0 1 1.41 0l.71.707a1 1 0 0 1-.71 1.707" fill="#546670"/><path d="M37 30h-.1a5 5 0 0 1-4.9 4c-2.59 0-4.7-1.977-4.95-4.5-.02.166-.05.328-.05.5a5 5 0 0 0 9.9 1h.1c.55 0 1-.448 1-1a.95.95 0 0 0-.15-.5c-.18.293-.48.5-.85.5" fill="#30404D"/><path d="M37 28h-.1a5 5 0 1 0 0 2h.1a1.001 1.001 0 0 0 0-2" fill="#ADBDC4"/><path d="M51 41c-1.1 0-2-.896-2-2V19c0-1.105.9-2 2-2s2 .895 2 2v20c0 1.104-.9 2-2 2" fill="#6E828F"/><path d="M10.41 50.414c.79-.781.79-2.047 0-2.828l-2.82 2.828a1.99 1.99 0 0 0 2.82 0M10.41 10.415c.79-.782.79-2.048 0-2.829l-2.82 2.829c.78.78 2.04.78 2.82 0" fill="#182A37"/><path d="M57 49c0 1.104-.9 2-2 2s-2-.896-2-2c0-1.105.9-2 2-2s2 .895 2 2M57 9c0 1.104-.9 2-2 2s-2-.896-2-2c0-1.105.9-2 2-2s2 .895 2 2" fill="#30404D"/><path d="M56.41 50.414c.79-.781.78-2.047 0-2.828l-2.82 2.828a1.99 1.99 0 0 0 2.82 0M56.41 10.415c.79-.782.78-2.048 0-2.829l-2.82 2.829c.78.78 2.04.78 2.82 0" fill="#182A37"/></g><rect x="2" y="2" width="96" height="96" rx="48" stroke="#0078D4" stroke-width="4"/></g></svg>

<svg xmlns="http://www.w3.org/2000/svg" xmlns:xlink="http://www.w3.org/1999/xlink" viewBox="0 0 100 100" version="1.1"><!-- Generator: Sketch 51.3 (57544) - http://www.bohemiancoding.com/sketch --><title>manage-secrets-in-your-web-apps-with-azure-key-vault</title><desc>Created with Sketch.</desc><defs><filter x="-1.6%" y="-1.7%" width="103.1%" height="106.7%" filterUnits="objectBoundingBox" id="filter-1"><feOffset dx="0" dy="2" in="SourceAlpha" result="shadowOffsetOuter1"></feOffset><feColorMatrix values="0 0 0 0 0   0 0 0 0 0   0 0 0 0 0  0 0 0 0.0977977808 0" type="matrix" in="shadowOffsetOuter1" result="shadowMatrixOuter1"></feColorMatrix><feMerge><feMergeNode in="shadowMatrixOuter1"></feMergeNode><feMergeNode in="SourceGraphic"></feMergeNode></feMerge></filter></defs><g id="Badges-FINAL" stroke="none" stroke-width="1" fill="none" fill-rule="evenodd"><g id="Secure-your-web-data" transform="translate(-577.000000, -339.000000)"><g id="manage-secrets-in-your-web-apps-with-azure-key-vault" transform="translate(577.000000, 339.000000)"><rect id="BG" fill="#55A2FF" fill-rule="nonzero" x="2" y="2" width="96" height="96" rx="48"></rect><g id="Safe" filter="url(#filter-1)" transform="translate(18.000000, 20.000000)"><path d="M54,59 C54,59.55 53.55,60 53,60 L47,60 C46.45,60 46,59.55 46,59 L46,58 C46,57.45 46.45,57 47,57 L53,57 C53.55,57 54,57.45 54,58 L54,59" id="Fill-354" fill="#30404D"></path><path d="M53,57 L50,57 L50,60 L53,60 C53.55,60 54,59.55 54,59 L54,58 C54,57.45 53.55,57 53,57" id="Fill-355" fill="#182A37"></path><path d="M18,59 C18,59.55 17.55,60 17,60 L11,60 C10.45,60 10,59.55 10,59 L10,58 C10,57.45 10.45,57 11,57 L17,57 C17.55,57 18,57.45 18,58 L18,59" id="Fill-356" fill="#30404D"></path><path d="M17,57 L14,57 L14,60 L17,60 C17.55,60 18,59.55 18,59 L18,58 C18,57.45 17.55,57 17,57" id="Fill-357" fill="#182A37"></path><path d="M64,56 C64,57.1 63.1,58 62,58 L2,58 C0.9,58 0,57.1 0,56 L0,2 C0,0.9 0.9,0 2,0 L62,0 C63.1,0 64,0.9 64,2 L64,56" id="Fill-358" fill="#30404D"></path><path d="M62,0 L32,0 L32,54 L6,54 C4.9,54 4,53.1 4,52 L4,53 C4,54.1 4.9,55 6,55 L30,55 C31.1,55 32,55.895 32,57 L32,58 L62,58 C63.1,58 64,57.1 64,56 L64,2 C64,0.9 63.1,0 62,0" id="Fill-359" fill="#182A37"></path><path d="M60,52 C60,53.1 59.1,54 58,54 L6,54 C4.9,54 4,53.1 4,52 L4,6 C4,4.9 4.9,4 6,4 L58,4 C59.1,4 60,4.9 60,6 L60,52" id="Fill-360" fill="#546670"></path><path d="M32,8 L32,50 C32,51.104 31.1,52 30,52 L4,52 C4,53.1 4.9,54 6,54 L58,54 C59.1,54 60,53.1 60,52 L60,6 L34,6 C32.9,6 32,6.895 32,8" id="Fill-361" fill="#30404D"></path><path d="M5,21 C5,21.549 4.55,22 4,22 L3,22 C2.45,22 2,21.549 2,21 L2,15 C2,14.449 2.45,14 3,14 L4,14 C4.55,14 5,14.449 5,15 L5,21" id="Fill-362" fill="#182A37"></path><path d="M5,43 C5,43.549 4.55,44 4,44 L3,44 C2.45,44 2,43.549 2,43 L2,37 C2,36.449 2.45,36 3,36 L4,36 C4.55,36 5,36.449 5,37 L5,43" id="Fill-363" fill="#182A37"></path><path d="M32,40.979 C25.54,40.979 20.29,35.885 20,29.5 C19.99,29.682 19.97,29.861 19.97,30.046 C19.97,36.687 25.36,42.071 32,42.071 C38.64,42.071 44.03,36.687 44.03,30.046 C44.03,29.861 44.01,29.682 44,29.5 C43.71,35.885 38.46,40.979 32,40.979" id="Fill-364" fill="#30404D"></path><path d="M11,9 C11,10.104 10.1,11 9,11 C7.9,11 7,10.104 7,9 C7,7.895 7.9,7 9,7 C10.1,7 11,7.895 11,9" id="Fill-365" fill="#30404D"></path><path d="M11,49 C11,50.104 10.1,51 9,51 C7.9,51 7,50.104 7,49 C7,47.895 7.9,47 9,47 C10.1,47 11,47.895 11,49" id="Fill-366" fill="#30404D"></path><path d="M44.03,28.953 C44.03,35.594 38.64,40.979 32,40.979 C25.36,40.979 19.97,35.594 19.97,28.953 C19.97,22.312 25.36,16.928 32,16.928 C38.64,16.928 44.03,22.312 44.03,28.953" id="Fill-367" fill="#6E828F"></path><path d="M32,39 C31.45,39 31,38.552 31,38 L31,37 C31,36.448 31.45,36 32,36 C32.55,36 33,36.448 33,37 L33,38 C33,38.552 32.55,39 32,39" id="Fill-368" fill="#546670"></path><path d="M32,22 C31.45,22 31,21.552 31,21 L31,20 C31,19.448 31.45,19 32,19 C32.55,19 33,19.448 33,20 L33,21 C33,21.552 32.55,22 32,22" id="Fill-369" fill="#546670"></path><path d="M24,30 L23,30 C22.45,30 22,29.552 22,29 C22,28.448 22.45,28 23,28 L24,28 C24.55,28 25,28.448 25,29 C25,29.552 24.55,30 24,30" id="Fill-370" fill="#546670"></path><path d="M41,30 L40,30 C39.45,30 39,29.552 39,29 C39,28.448 39.45,28 40,28 L41,28 C41.55,28 42,28.448 42,29 C42,29.552 41.55,30 41,30" id="Fill-371" fill="#546670"></path><path d="M25.64,36.363 C25.38,36.363 25.12,36.266 24.93,36.07 C24.54,35.68 24.54,35.047 24.93,34.656 L25.64,33.949 C26.03,33.559 26.66,33.559 27.05,33.949 C27.44,34.34 27.44,34.973 27.05,35.363 L26.34,36.07 C26.15,36.266 25.89,36.363 25.64,36.363" id="Fill-372" fill="#546670"></path><path d="M37.66,24.343 C37.4,24.343 37.15,24.245 36.95,24.05 C36.56,23.66 36.56,23.027 36.95,22.636 L37.66,21.928 C38.05,21.537 38.68,21.538 39.07,21.927 C39.46,22.317 39.46,22.951 39.07,23.341 L38.37,24.049 C38.17,24.245 37.91,24.343 37.66,24.343" id="Fill-373" fill="#546670"></path><path d="M26.34,24.343 C26.09,24.343 25.83,24.245 25.63,24.049 L24.93,23.341 C24.54,22.951 24.54,22.317 24.93,21.927 C25.32,21.538 25.95,21.537 26.34,21.928 L27.05,22.636 C27.44,23.027 27.44,23.66 27.05,24.05 C26.85,24.245 26.6,24.343 26.34,24.343" id="Fill-374" fill="#546670"></path><path d="M38.36,36.363 C38.11,36.363 37.85,36.266 37.66,36.07 L36.95,35.363 C36.56,34.973 36.56,34.34 36.95,33.949 C37.34,33.559 37.97,33.559 38.36,33.949 L39.07,34.656 C39.46,35.047 39.46,35.68 39.07,36.07 C38.88,36.266 38.62,36.363 38.36,36.363" id="Fill-375" fill="#546670"></path><path d="M37,30 L36.9,30 C36.44,32.281 34.42,34 32,34 C29.41,34 27.3,32.023 27.05,29.5 C27.03,29.666 27,29.828 27,30 C27,32.762 29.24,35 32,35 C34.42,35 36.44,33.281 36.9,31 L37,31 C37.55,31 38,30.552 38,30 C38,29.813 37.94,29.648 37.85,29.5 C37.67,29.793 37.37,30 37,30" id="Fill-376" fill="#30404D"></path><path d="M37,28 L36.9,28 C36.44,25.717 34.42,24 32,24 C29.24,24 27,26.238 27,29 C27,31.762 29.24,34 32,34 C34.42,34 36.44,32.281 36.9,30 L37,30 C37.55,30 38,29.552 38,29 C38,28.447 37.55,28 37,28" id="Fill-377" fill="#ADBDC4"></path><path d="M51,41 C49.9,41 49,40.104 49,39 L49,19 C49,17.895 49.9,17 51,17 C52.1,17 53,17.895 53,19 L53,39 C53,40.104 52.1,41 51,41" id="Fill-378" fill="#6E828F"></path><path d="M10.41,50.414 C11.2,49.633 11.2,48.367 10.41,47.586 L7.59,50.414 C8.37,51.195 9.63,51.195 10.41,50.414" id="Fill-379" fill="#182A37"></path><path d="M10.41,10.415 C11.2,9.633 11.2,8.367 10.41,7.586 L7.59,10.415 C8.37,11.195 9.63,11.195 10.41,10.415" id="Fill-380" fill="#182A37"></path><path d="M57,49 C57,50.104 56.1,51 55,51 C53.9,51 53,50.104 53,49 C53,47.895 53.9,47 55,47 C56.1,47 57,47.895 57,49" id="Fill-381" fill="#30404D"></path><path d="M57,9 C57,10.104 56.1,11 55,11 C53.9,11 53,10.104 53,9 C53,7.895 53.9,7 55,7 C56.1,7 57,7.895 57,9" id="Fill-382" fill="#30404D"></path><path d="M56.41,50.414 C57.2,49.633 57.19,48.367 56.41,47.586 L53.59,50.414 C54.37,51.195 55.63,51.195 56.41,50.414" id="Fill-383" fill="#182A37"></path><path d="M56.41,10.415 C57.2,9.633 57.19,8.367 56.41,7.586 L53.59,10.415 C54.37,11.195 55.63,11.195 56.41,10.415" id="Fill-384" fill="#182A37"></path></g><g id="Azure-Border" stroke="#0078D4" stroke-width="4"><rect x="2" y="2" width="96" height="96" rx="48"></rect></g></g></g></g></svg>
